X: 19776
T: Jenny's Welcome To Charlie
R: reel
M: 4/4
K: Ddorian
|:A~d3d efc|A~c3 cAGc|A~d2c (3ddd cd|ea{b}ag eddc-|
cddA dcAB|~c2Gc cAGE|DEFG Addc|1 AGcG EGGc:|2 AGcG EGGE||

